X: 11040
T: Dublin Lads, The
R: reel
M: 4/4
K: Gmajor
g3 d BG G2|ABcA DFAd|gfgd Bcde|1 fdcA GABd:|2 fdcA G3 c||
BGAF DEFE|F2 df ecdc|BGAF DFeg|fdcA G3 c:|2 fdcA GABc||
dg g2 dg g2|dffe fgfe|dg g2 d^cde|fdcA GABc|
dg g2 dg g2|dffe fgfe|defg a2 ag|fdcA G4:|

